X:1
T:Consolation
T:Isaac Watts, 1707 Various hymns, amended         86. 86. (C. M.) 
T:Transcribed from Harmonia Americana, 1791.
T:B  Major                  Samuel Holyoke, 1791 
%%score [ 1 2 3 4 ]
L:1/8
Q:1/4=150
M:4/4
K:Bb
V:1 treble nm="Tr." snm="Tr."
V:2 treble nm="C." snm="C."
V:3 treble-8 nm="T." snm="T."
V:4 bass nm="B." snm="B."
V:1
 d8 | d6 c2 | B4 A4 | B4 c4 | d8 | z4 B4 | B4 B4 | A4 G4 | ^F8 | z4 ^F4 | ^F4 F4 | G4 ^F4 | G4 A4 | %13
 B8 | z4 B4 | B4 [Bd]4 | (c3 B) A4 | B8 | z4 d4 | d4 e4 | d4 c4 | B4 A4 | B4 z2 B2 | d4 A4 | %24
 (B3 A) G4 | ^F8 | z4 d4 | G4 A4 | B4 B4 | c4 B4 | A6 A2 | B4 c4 | d4 c4 | d8 | z4 B4 | %35
 B3 c d2 dc | (B3 A) (G3 A) | A6 A2 | B4 B4 | B4 B4 | A6 z2 |: B4 B2 B2 | A3 A A3 z | G8 | ^F8 :| %45
 z4 ^F4 | G4 z2 A2 | B6 z2 | A8 | B8 |] %50
V:2
 F8 | F6 F2 | F4 F4 | F4 F4 | F8 | z4 F4 | F4 F4 | (F3 E) D4 | D8 | z4 D4 | D4 D4 | D4 D4 | D4 F4 | %13
w: Hear|what the|voice from|heav'n de-|clares|To|those in|Christ * who|die!|Re-|leased from|all their|earth- ly|
 F8 | z4 F4 | F4 G4 | G4 F4 | F8 | z4 D4 | B,4 C4 | D4 F4 | F4 F4 | F4 z2 F2 | F4 ^F4 | %24
w: cares,|They|reign with|him on|high.|Then|why la-|ment de-|par- ted|friends, Or|shake at|
 (G3 F) =E4 | D8 | z4 F4 | E4 =E4 | F4 (F3 G) | (A3 G) F4 | F6 F2 | D4 F4 | F4 F4 | F8 | z4 F4 | %35
w: death's * a-|larms?|Death's|but the|ser- vant *|Je- * sus|sends To|call us|to his|arms.|Then|
 F3 F F2 FE | D4 G4 | ^F6 =E2 | D4 F4 | G4 F4 | F6 z2 |: F4 F2 F2 | F3 F F3 z | D8 | D8 :| z4 D4 | %46
w: joy- ful- ly, while *|life we|have, To|Christ, our|life, we'll|sing|Where is thy|vic- to- ry,|O|grave?|And|
 D4 z2 F2 | F6 z2 | F8 | F8 |] %50
w: where, O|death,|thy|sting?|
V:3
 B8 | B6 c2 | d4 c4 | d4 c4 | B8 | z4 d4 | d4 d4 | c4 B4 | A8 | z4 A4 | A4 A4 | B4 A4 | B4 c4 | %13
 d8 | z4 f4 | d4 B4 | (e3 d) c4 | B8 | z4 B4 | B4 A4 | B4 c4 | d4 c4 | d4 z2 d2 | d4 c4 | %24
 B4 (c3 B) | A8 | z4 B4 | B4 c4 | d4 d4 | e4 d4 | c6 d2 | G4 A4 | B4 A4 | B8 | z4 d4 | d3 c B2 A2 | %36
 B4 c4 | d6 =e2 | f4 d4 | e4 d4 | c6 z2 |: d4 d2 d2 | c3 c c3 z | B8 | A8 :| z4 A4 | B4 z2 c2 | %47
 d6 z2 | c8 | d8 |] %50
V:4
 B,,8 | B,,6 F,2 | B,4 F,4 | B,4 F,4 | B,,8 | z4 B,4 | B,4 B,4 | F,4 G,4 | D,8 | z4 D,4 | D,4 D,4 | %11
 G,4 D,4 | G,4 F,4 | B,,8 | z4 B,,4 | B,4 G,4 | E,4 F,4 | B,,8 | z4 B,,4 | D,4 C,4 | B,,4 A,,4 | %21
 B,,4 F,4 | B,4 z2 B,2 | B,4 A,4 | G,4 C,4 | D,8 | z4 D,4 | (E,3 D,) C,4 | B,,4 B,4 | A,4 B,4 | %30
 F,6 D,2 | G,4 F,4 | B,4 F,4 | B,,8 | z4"^\n" B,,4 | B,3 A, B,2 F,2 | (G,3 F,) E,4 | D,6 C,2 | %38
 B,,4 B,4 | E,4 B,,4 | F,6 z2 |: B,4 B,2 B,2 | F,3 F, F,3 z | G,8 | D,8 :| z4 D,4 | G,4 z2 F,2 | %47
 B,6 z2 | F,8 | B,,8 |] %50

